X:65
T:Western
Z: id:dc-hornpipe-57
M:C|
L:1/8
K:C Major
gf|ecc2 GcEc|ecc2 GcEc|AFF2 CFA,F|AcBd cegf|!
ecc2 GcEc|ecc2 GcEc|AFF2 CFA,F|AcBd ce:|!
gf|e2ce gage|f2df abag|e2ce agfe|dcBA G2gf|!
e2ce gage|f2df abag|e2ce d2Bd|c2cB c2:|!

